X:948
T:Willafjord
R:reel
H:Cf. "Kilfenora Reel" #949
O:Shetland
Z:id:hn-reel-948
M:C|
L:1/8
K:D
A2FA2DFA | B2GB2DGB | A2FA2DFA | EFGA GFED |
A2FA2DFA | B2GB2DGB | ABcd efge |1 f2d2 d3B :|2 f2d2 d3e ||
|: f2df2fdf | geaf gfed | f2df2Adf | e2ce Aece|
f2df2fdf | geaf gfed | ABcd efge |1 f2d2 d3e :|2 f2d2 d3B ||

